<?xml version="1.0" encoding="UTF-8"?>
<map version="1.10" tiledversion="1.12.1" orientation="orthogonal" renderorder="right-down" width="16" height="16" tilewidth="16" tileheight="16" infinite="0" nextlayerid="6" nextobjectid="53">
 <tileset firstgid="1" source="tileset.tsx"/>
 <tileset firstgid="1301" source="pokecenter_lady.tsx"/>
 <tileset firstgid="1305" source="character.tsx"/>
 <layer id="1" name="Warstwa Kafelków 1" width="16" height="16">
  <data encoding="csv">
927,928,928,928,928,928,928,928,928,928,928,928,928,928,928,929,
979,980,980,980,980,980,980,980,980,980,980,980,980,980,980,981,
979,980,980,980,980,980,980,980,980,980,980,980,980,980,980,981,
979,980,980,980,980,980,980,980,980,980,980,980,980,980,980,981,
979,980,980,980,980,980,980,980,980,980,980,980,980,980,980,981,
979,980,980,980,980,980,980,980,980,980,980,980,980,980,980,981,
979,980,980,980,980,980,980,980,980,980,980,980,980,980,980,981,
979,980,980,980,980,980,980,980,980,980,980,980,980,980,980,981,
979,980,980,980,980,980,980,980,980,980,980,980,980,980,980,981,
979,980,980,980,980,980,980,980,980,980,980,980,980,980,980,981,
979,980,980,980,980,980,980,980,980,980,980,980,980,980,980,981,
979,980,980,980,980,980,980,980,980,980,980,980,980,980,980,981,
979,980,980,980,980,980,980,980,980,980,980,980,980,980,980,981,
979,980,980,980,980,980,980,980,980,980,980,980,980,980,980,981,
979,980,980,980,980,980,980,980,980,980,980,980,980,980,980,981,
1031,1032,1032,1032,1032,1032,1032,1032,1032,1032,1032,1032,1032,1032,1032,1033
</data>
 </layer>
 <layer id="3" name="Warstwa Kafelków 2" width="16" height="16">
  <data encoding="csv">
0,0,0,0,827,0,0,0,0,0,0,829,0,0,0,0,
0,0,0,0,879,0,0,0,0,0,0,881,0,0,0,0,
0,0,0,0,879,0,0,0,0,0,0,881,0,0,0,0,
0,0,0,0,879,0,0,1301,1302,0,0,881,0,0,0,0,
0,0,0,0,879,0,0,1303,1304,0,0,881,0,0,0,0,
0,0,0,0,931,932,932,932,932,932,932,933,0,0,0,0,
0,0,0,0,0,0,0,0,0,0,0,0,0,0,0,0,
0,0,0,0,0,0,0,0,0,0,0,0,0,0,0,0,
0,0,0,0,0,0,0,0,0,0,0,0,0,0,0,0,
0,0,0,0,0,0,0,0,0,0,0,0,0,0,0,0,
0,0,0,0,0,0,0,0,0,0,0,0,0,0,0,0,
0,0,0,0,0,0,0,0,0,0,0,0,0,0,0,0,
0,0,0,0,0,0,0,0,0,0,0,0,0,0,0,0,
0,0,0,0,0,0,0,0,0,0,0,0,0,0,0,0,
0,0,0,0,0,0,0,0,0,0,0,0,0,0,0,0,
0,0,0,0,0,0,0,0,0,0,0,0,0,0,0,0
</data>
 </layer>
 <objectgroup id="4" name="objects">
  <object id="48" name="player" gid="1305" x="112" y="238.25" width="32" height="32"/>
 </objectgroup>
 <objectgroup id="5" name="trigger">
  <object id="49" type="MapChangeTrigger" x="96.25" y="245.75" width="63.75" height="9.75">
   <properties>
    <property name="target_map" value="START"/>
   </properties>
  </object>
  <object id="51" type="AddInteractionTrigger" x="102.75" y="95.5" width="53" height="16.25"/>
 </objectgroup>
</map>
