<?xml version="1.0" encoding="UTF-8"?>
<map version="1.10" tiledversion="1.12.1" orientation="orthogonal" renderorder="right-down" width="16" height="16" tilewidth="16" tileheight="16" infinite="0" nextlayerid="7" nextobjectid="24">
 <tileset firstgid="1" source="tileset.tsx"/>
 <tileset firstgid="1301" source="table.tsx"/>
 <tileset firstgid="1310" source="shop_guy.tsx"/>
 <tileset firstgid="1314" source="character.tsx"/>
 <layer id="1" name="Warstwa Kafelków 1" width="16" height="16">
  <data encoding="csv">
1083,1084,1084,1084,1084,1084,1084,1084,1084,1084,1084,1084,1084,1084,1084,1085,
1135,1136,1136,1136,1136,1136,1136,1136,1136,1136,1136,1136,1136,1136,1136,1137,
1135,1136,1136,1136,1136,1136,1136,1136,1136,1136,1136,1136,1136,1136,1136,1137,
1135,1136,1136,1136,1136,1136,1136,1136,1136,1136,1136,1136,1136,1136,1136,1137,
1135,1136,1136,1136,1136,1136,1136,1136,1136,1136,1136,1136,1136,1136,1136,1137,
1135,1136,1136,1136,1136,1136,1136,1136,1136,1136,1136,1136,1136,1136,1136,1137,
1135,1136,1136,1136,1136,1136,1136,1136,1136,1136,1136,1136,1136,1136,1136,1137,
1135,1136,1136,1136,1136,1136,1136,1136,1136,1136,1136,1136,1136,1136,1136,1137,
1135,1136,1136,1136,1136,1136,1136,1136,1136,1136,1136,1136,1136,1136,1136,1137,
1135,1136,1136,1136,1136,1136,1136,1136,1136,1136,1136,1136,1136,1136,1136,1137,
1135,1136,1136,1136,1136,1136,1136,1136,1136,1136,1136,1136,1136,1136,1136,1137,
1135,1136,1136,1136,1136,1136,1136,1136,1136,1136,1136,1136,1136,1136,1136,1137,
1135,1136,1136,1136,1136,1136,1136,1136,1136,1136,1136,1136,1136,1136,1136,1137,
1135,1136,1136,1136,1136,1136,1136,1136,1136,1136,1136,1136,1136,1136,1136,1137,
1135,1136,1136,1136,1136,1136,1136,1136,1136,1136,1136,1136,1136,1136,1136,1137,
1187,1188,1188,1188,1188,1188,1188,1188,1188,1188,1188,1188,1188,1188,1188,1189
</data>
 </layer>
 <layer id="2" name="Warstwa Kafelków 2" width="16" height="16">
  <data encoding="csv">
0,0,0,0,827,0,0,0,0,0,0,829,0,0,0,0,
0,0,0,0,879,0,0,0,0,0,0,881,0,0,0,0,
0,0,0,0,879,0,0,0,0,0,0,881,0,0,0,0,
0,0,0,0,879,0,0,1310,1311,0,0,881,0,0,0,0,
0,0,0,0,879,0,0,1312,1313,0,0,881,0,0,0,0,
0,0,0,0,931,932,932,932,932,932,932,933,0,0,0,0,
0,0,0,0,0,0,0,0,0,0,0,0,0,0,0,0,
0,0,0,0,0,0,0,0,0,0,0,0,0,0,0,0,
0,0,0,0,0,0,0,0,0,0,0,0,0,0,0,0,
0,0,0,0,0,0,0,0,0,0,0,0,0,0,0,0,
0,0,0,0,0,0,0,0,0,0,0,0,0,0,0,0,
0,0,0,0,0,0,0,0,0,0,0,0,0,0,0,0,
0,0,0,0,0,0,0,0,0,0,0,0,0,0,0,0,
0,0,0,0,0,0,0,0,0,0,0,0,0,0,0,0,
0,0,0,0,0,0,0,0,0,0,0,0,0,0,0,0,
0,0,0,0,0,0,0,0,0,0,0,0,0,0,0,0
</data>
 </layer>
 <objectgroup id="6" name="objects">
  <object id="21" name="player" gid="1314" x="111.68" y="237.842" width="32" height="32"/>
 </objectgroup>
 <objectgroup id="5" name="trigger">
  <object id="20" type="MapChangeTrigger" x="95.7051" y="244.114" width="63.9504" height="11.2464">
   <properties>
    <property name="target_map" value="START"/>
   </properties>
  </object>
  <object id="23" type="AddInteractionTrigger" x="102.982" y="95.4845" width="51.3808" height="10.3644">
   <properties>
    <property name="interaction_type" value="SHOP"/>
   </properties>
  </object>
 </objectgroup>
</map>
