<?xml version="1.0" encoding="UTF-8"?>
<map version="1.10" tiledversion="1.12.1" orientation="orthogonal" renderorder="right-down" width="16" height="16" tilewidth="16" tileheight="16" infinite="0" nextlayerid="4" nextobjectid="15">
 <tileset firstgid="1" source="tileset.tsx"/>
 <tileset firstgid="1301" source="objects.tsx"/>
 <tileset firstgid="1303" source="character.tsx"/>
 <layer id="1" name="map" width="16" height="16">
  <data encoding="csv">
262,262,262,262,262,262,262,262,262,262,262,262,262,262,262,1,
262,262,262,262,262,262,262,262,262,262,262,262,262,262,262,1,
262,262,262,262,262,262,262,262,262,262,262,262,262,262,262,1,
1,1,1,1,1,1,1,1,1,1,1,1,1,1,1,1,
1,1,1,1,1,1,1,1,1,1,1,1,1,1,1,1,
1,1,1,1,1,1,1,1,1,1,1,1,1,1,1,1,
54,54,54,54,54,54,54,54,54,54,54,54,54,54,54,54,
106,106,106,106,106,106,106,106,106,106,106,106,106,106,106,106,
158,158,158,158,158,158,158,158,158,158,158,158,158,158,158,158,
262,262,262,262,262,262,262,262,262,262,262,262,262,262,262,1,
262,262,262,262,262,262,262,262,365,366,366,367,262,262,262,1,
262,262,262,262,262,262,262,262,417,574,574,419,262,262,262,1,
262,262,262,262,262,262,262,262,417,574,574,419,262,262,262,1,
262,262,262,262,262,262,262,262,469,470,470,471,262,262,262,1,
262,262,262,262,262,262,262,262,262,262,262,262,262,262,262,1,
1,1,1,1,1,1,1,1,1,1,1,1,1,1,1,1
</data>
 </layer>
 <objectgroup id="2" name="objects">
  <object id="5" gid="1301" x="3.89077" y="95.9628" width="96" height="96"/>
  <object id="6" gid="1302" x="112.221" y="95.4053" width="96" height="80"/>
  <object id="7" name="player" type="Player" gid="1303" x="83.8536" y="132.393" width="32" height="32">
   <properties>
    <property name="animation" value="IDLE"/>
    <property name="animationSpeed" type="float" value="2"/>
    <property name="atlasAsset" value="OBJECTS"/>
    <property name="controller" type="bool" value="true"/>
    <property name="player" type="bool" value="true"/>
    <property name="speed" type="float" value="7"/>
   </properties>
  </object>
 </objectgroup>
 <objectgroup id="3" name="trigger">
  <object id="9" type="MapChangeTrigger" x="240.021" y="96.1323" width="15.5052" height="47.5493">
   <properties>
    <property name="target_map" value="ROUTE_1"/>
   </properties>
  </object>
  <object id="10" type="MapChangeTrigger" x="0" y="95.7188" width="10.3368" height="47.7561">
   <properties>
    <property name="target_map" value="ROUTE_2"/>
   </properties>
  </object>
  <object id="11" type="MapChangeTrigger" x="36.799" y="95.7188" width="29.9767" height="7.85597">
   <properties>
    <property name="target_map" value="POKECENTER"/>
   </properties>
  </object>
  <object id="14" type="MapChangeTrigger" x="143.888" y="95.3054" width="15.7119" height="4.75493">
   <properties>
    <property name="target_map" value="SHOP"/>
   </properties>
  </object>
 </objectgroup>
</map>
