<?xml version="1.0" encoding="UTF-8"?>
<map version="1.10" tiledversion="1.12.1" orientation="orthogonal" renderorder="right-down" width="30" height="30" tilewidth="32" tileheight="32" infinite="0" nextlayerid="3" nextobjectid="1">
 <tileset firstgid="1" source="../../../dab2byf-afb89e9f-cfda-44e2-8caa-4566fc598e92.tsx"/>
 <layer id="1" name="Warstwa Kafelków 1" width="30" height="30">
  <data encoding="csv">
705,705,705,705,705,705,705,705,705,705,705,705,705,705,705,705,705,705,705,705,705,705,705,705,705,705,705,705,705,705,
705,705,705,705,705,705,705,705,705,705,705,705,705,705,705,705,705,705,705,705,705,705,705,705,705,705,705,705,705,705,
705,705,705,705,705,705,705,705,705,705,705,705,705,705,705,705,705,705,705,705,705,705,705,705,705,705,705,705,705,705,
705,705,705,705,705,705,705,705,705,705,705,705,705,705,705,705,705,705,705,705,705,705,705,705,705,705,705,705,705,705,
705,705,705,705,705,705,705,705,705,705,705,705,705,705,705,705,705,705,705,705,705,705,705,705,705,705,705,705,705,705,
705,705,705,705,705,705,705,705,705,705,705,705,705,705,705,705,705,705,705,705,705,705,705,705,705,705,705,705,705,705,
705,705,705,705,705,705,705,705,705,705,705,705,705,705,705,705,705,705,705,705,705,705,705,705,705,705,705,705,705,705,
705,705,705,705,705,705,705,705,705,705,705,705,705,705,705,705,705,705,705,705,705,705,705,705,705,705,705,705,705,705,
705,705,705,705,705,705,705,705,705,705,705,705,705,705,705,705,705,705,705,705,705,705,705,705,705,705,705,705,705,705,
705,705,705,705,705,705,705,705,705,705,705,705,705,705,705,705,705,705,705,705,705,705,705,705,705,705,705,705,705,705,
705,705,705,705,705,705,705,705,705,705,705,705,705,705,705,705,705,705,705,705,705,705,705,705,705,705,705,705,705,705,
705,705,705,705,705,705,705,705,705,705,705,705,705,705,705,705,705,705,705,705,705,705,705,705,705,705,705,705,705,705,
705,705,705,705,705,705,705,705,705,705,705,705,705,705,705,705,705,705,705,705,705,705,705,705,705,705,705,705,705,705,
705,705,705,705,705,705,705,705,705,705,705,705,705,705,705,705,705,705,705,705,705,705,705,705,705,705,705,705,705,705,
705,705,705,705,705,705,705,705,705,705,705,705,705,705,705,705,705,705,705,705,705,705,705,705,705,705,705,705,705,705,
705,705,705,705,705,705,705,705,705,705,705,705,705,705,705,705,705,705,705,705,705,705,705,705,705,705,705,705,705,705,
705,705,705,705,705,705,705,705,705,705,705,705,705,705,705,705,705,705,705,705,705,705,705,705,705,705,705,705,705,705,
705,705,705,705,705,705,705,705,705,705,705,705,705,705,705,705,705,705,705,705,705,705,705,705,705,705,705,705,705,705,
705,705,705,705,705,705,705,705,705,705,705,705,705,705,705,705,705,705,705,705,705,705,705,705,705,705,705,705,705,705,
705,705,705,705,705,705,705,705,705,705,705,705,705,705,705,705,705,705,705,705,705,705,705,705,705,705,705,705,705,705,
705,705,705,705,705,705,705,705,705,705,705,705,705,705,705,705,705,705,705,705,705,705,705,705,705,705,705,705,705,705,
705,705,705,705,705,705,705,705,705,705,705,705,705,705,705,705,705,705,705,705,705,705,705,705,705,705,705,705,705,705,
705,705,705,705,705,705,705,705,705,705,705,705,705,705,705,705,705,705,705,705,705,705,705,705,705,705,705,705,705,705,
705,705,705,705,705,705,705,705,705,705,705,705,705,705,705,705,705,705,705,705,705,705,705,705,705,705,705,705,705,705,
705,705,705,705,705,705,705,705,705,705,705,705,705,705,705,705,705,705,705,705,705,705,705,705,705,705,705,705,705,705,
705,705,705,705,705,705,705,705,705,705,705,705,705,705,705,705,705,705,705,705,705,705,705,705,705,705,705,705,705,705,
705,705,705,705,705,705,705,705,705,705,705,705,705,705,705,705,705,705,705,705,705,705,705,705,705,705,705,705,705,705,
705,705,705,705,705,705,705,705,705,705,705,705,705,705,705,705,705,705,705,705,705,705,705,705,705,705,705,705,705,705,
705,705,705,705,705,705,705,705,705,705,705,705,705,705,705,705,705,705,705,705,705,705,705,705,705,705,705,705,705,705,
705,705,705,705,705,705,705,705,705,705,705,705,705,705,705,705,705,705,705,705,705,705,705,705,705,705,705,705,705,705
</data>
 </layer>
 <layer id="2" name="Warstwa Kafelków 2" width="30" height="30">
  <data encoding="csv">
0,0,0,0,0,0,0,705,705,2945,2946,2947,705,705,705,2948,2949,2950,0,0,0,0,0,0,0,0,0,0,0,0,
0,0,0,0,0,0,0,705,705,2953,2954,2955,705,705,705,2956,2957,2958,0,0,0,0,0,0,0,0,0,0,0,0,
0,0,0,0,0,0,0,705,705,2961,2962,2963,705,705,705,2964,2965,2966,0,0,0,0,0,0,0,0,0,0,0,0,
0,0,0,0,0,0,0,705,705,0,0,0,0,0,0,0,0,0,0,0,0,0,0,0,0,0,0,0,0,0,
0,0,0,0,0,0,0,0,0,0,0,0,0,0,0,0,0,0,0,0,0,0,0,0,0,0,0,0,0,0,
0,0,0,0,0,0,0,0,0,0,0,0,0,0,0,0,0,0,0,0,0,0,0,0,0,0,0,0,0,0,
0,0,0,0,0,0,0,0,0,0,0,0,0,0,0,0,0,0,0,0,0,0,0,0,0,0,0,0,0,0,
0,0,0,0,0,0,0,0,0,0,0,0,0,0,0,0,0,0,0,0,0,0,0,0,0,0,0,0,0,0,
0,0,0,0,0,0,0,0,0,0,0,0,0,0,0,0,0,0,0,0,0,0,0,0,0,0,0,0,0,0,
0,0,0,0,0,0,0,0,0,0,0,0,0,0,0,0,0,0,0,0,0,0,0,0,0,0,0,0,0,0,
0,0,0,0,0,0,0,0,0,0,0,0,0,0,0,0,0,0,0,0,0,0,0,0,0,0,0,0,0,0,
0,0,0,0,0,0,0,0,0,0,0,0,0,0,0,0,0,0,0,0,0,0,0,0,568,568,568,568,568,568,
568,568,568,568,568,0,0,0,0,0,0,0,0,0,0,0,0,0,0,0,0,0,0,0,568,568,568,568,568,568,
568,568,568,568,568,0,0,0,0,0,0,0,0,0,0,0,0,0,0,0,0,0,0,0,568,568,568,568,568,568,
568,568,568,568,568,0,0,0,0,0,0,0,0,0,0,0,0,0,0,0,0,0,0,0,568,568,568,568,568,568,
568,568,568,568,568,0,0,0,0,0,0,0,0,0,0,0,0,0,0,0,0,0,0,0,568,568,568,568,568,568,
568,568,568,568,568,0,0,0,0,0,0,0,0,0,0,0,0,0,0,0,0,0,0,0,568,568,568,568,568,568,
568,568,568,568,568,0,0,0,0,0,0,0,0,0,0,0,0,0,0,0,0,0,0,0,568,568,568,568,568,568,
568,568,568,568,568,0,0,0,0,0,0,0,0,0,0,0,0,0,0,0,0,0,0,0,568,568,568,568,568,568,
568,568,568,568,568,0,0,0,0,0,0,0,0,0,0,0,0,0,0,0,0,0,0,0,568,568,568,568,568,568,
0,0,0,0,0,0,0,0,0,0,0,0,0,0,0,0,0,0,0,0,0,0,0,0,0,0,0,0,0,0,
0,0,0,0,0,0,0,0,0,0,0,0,0,0,0,0,0,0,0,0,0,0,0,0,0,0,0,0,0,0,
0,0,0,0,0,0,0,0,0,0,0,0,0,0,0,0,0,0,0,0,0,0,0,0,0,0,0,0,0,0,
568,568,568,568,568,0,0,0,0,0,0,0,0,0,0,0,0,0,0,0,0,0,0,0,0,0,0,0,0,0,
568,568,568,568,568,0,0,0,0,0,0,0,0,0,0,0,0,0,0,0,0,0,0,0,0,0,0,0,0,0,
568,568,568,568,568,0,0,0,0,0,0,0,0,0,0,0,0,0,568,568,568,568,568,568,568,568,568,568,568,568,
568,568,568,568,568,0,0,0,0,0,0,0,0,0,0,0,0,0,568,568,568,568,568,568,568,568,568,568,568,568,
568,568,568,568,568,0,0,0,0,0,0,0,0,0,0,0,0,0,568,568,568,568,568,568,568,568,568,568,568,568,
568,568,568,568,568,0,0,0,0,0,0,0,0,0,0,0,0,0,568,568,568,568,568,568,568,568,568,568,568,568,
568,568,568,568,568,0,0,0,0,0,0,0,0,0,0,0,0,0,568,568,568,568,568,568,568,568,568,568,568,568
</data>
 </layer>
</map>
